justvector/google_talk.svg

<?xml version="1.0" encoding="iso-8859-1"?>
<!-- Generator: Adobe Illustrator 15.0.0, SVG Export Plug-In . SVG Version: 6.00 Build 0)  -->
<!DOCTYPE svg PUBLIC "-//W3C//DTD SVG 1.1//EN" "http://www.w3.org/Graphics/SVG/1.1/DTD/svg11.dtd">
<svg version="1.1" id="Icons" xmlns="http://www.w3.org/2000/svg" xmlns:xlink="http://www.w3.org/1999/xlink" x="0px" y="0px"
	 width="100px" height="100px" viewBox="0 0 100 100" style="enable-background:new 0 0 100 100;" xml:space="preserve">
<path id="Google_Talk" style="fill-rule:evenodd;clip-rule:evenodd;" d="M94.609,41.276c0-19.814-20.146-35.87-44.992-35.87
	c-24.862,0-45.008,16.056-45.008,35.87c0,17.21,15.216,31.59,35.519,35.063c-0.468,5.742-1.658,12.286-4.163,19.066
	c9.931-2.645,18.614-11.517,24.624-19.339C80.132,72.16,94.609,58.064,94.609,41.276z M68.911,63.368
	c-0.601,0.114-1.207,0.208-1.822,0.272c-0.648,0.063-1.304,0.107-1.968,0.107c-0.578,0-1.146-0.046-1.711-0.093
	c7.054-5.077,11.648-13.198,11.648-22.378c0-10.083-5.533-18.888-13.792-23.78c1.253-0.243,2.536-0.39,3.854-0.39
	c11.948,0,21.631,10.443,21.631,23.326C86.752,51.911,79.048,61.433,68.911,63.368z"/>
</svg>

<?xml version="1.0" encoding="UTF-8" standalone="no"?>
<!DOCTYPE svg PUBLIC "-//W3C//DTD SVG 1.1//EN" "http://www.w3.org/Graphics/SVG/1.1/DTD/svg11.dtd">
<svg width="100%" height="100%" viewBox="0 0 100 100" version="1.1" xmlns="http://www.w3.org/2000/svg" xmlns:xlink="http://www.w3.org/1999/xlink" xml:space="preserve" xmlns:serif="http://www.serif.com/" style="fill-rule:evenodd;clip-rule:evenodd;stroke-linejoin:round;stroke-miterlimit:2;">
    <g id="Google_Talk" transform="matrix(-2.22045e-16,1,-1,-2.22045e-16,89.2436,0.398118)">
        <path d="M94.609,41.276C94.609,21.462 74.463,5.406 49.617,5.406C24.755,5.406 4.609,21.462 4.609,41.276C4.609,49.948 15.18,74.023 50.136,74.023C84.055,74.023 94.609,49.604 94.609,41.276ZM68.911,63.368C68.31,63.482 67.704,63.576 67.089,63.64C66.441,63.703 65.785,63.747 65.121,63.747C64.543,63.747 63.975,63.701 63.41,63.654C70.464,58.577 75.058,50.456 75.058,41.276C75.058,31.193 69.525,22.388 61.266,17.496C62.519,17.253 63.802,17.106 65.12,17.106C77.068,17.106 86.751,27.549 86.751,40.432C86.752,51.911 79.048,61.433 68.911,63.368Z" style="fill:rgb(255,0,0);"/>
    </g>
</svg>
